X:1
T:M.T.B.
C:Traditional
M:3/4
L:1/4
Q:1/4=144
K:D
A | D F d | d3/2d/2c/2d/2 | e d b | b2 a/2a/2 | A C E | a3/2a/2^g/2a/2 | b a g | F2 F/2E/2 |
D F d | d3/2d/2c/2d/2 | e d b | b a a | A C E | a3/2a/2^g/2a/2 | g F E | D3 |]
